store-outline.svg

<svg  viewBox="0 0 24 24" fill="currentColor"><path  d="M18.36 9L18.96 12H5.04L5.64 9H18.36M20 4H4V6H20V4M20 7H4L3 12V14H4V20H14V14H18V20H20V14H21V12L20 7M6 18V14H12V18H6Z"/></svg>

<svg fill="currentColor" viewBox="0 0 24 24"><path d="m18.36 9 .6 3H5.04l.6-3zM20 4H4v2h16zm0 3H4l-1 5v2h1v6h10v-6h4v6h2v-6h1v-2zM6 18v-4h6v4z"/></svg>
